content/demo/exploring-facebook-live-ui/img/emojis.svg

<svg xmlns="http://www.w3.org/2000/svg" width="333" height="60" viewBox="0 0 333 60" xmlns:xlink="http://www.w3.org/1999/xlink">
  <defs>
    <linearGradient id="a" x1="50%" x2="50%" y1="0%" y2="100%">
      <stop stop-color="#F65366" offset="0%"/>
      <stop stop-color="#F87168" offset="20.0672743%"/>
      <stop stop-color="#FB9568" offset="40.9695095%"/>
      <stop stop-color="#FEC96A" offset="70.8034939%"/>
      <stop stop-color="#FFDB6B" offset="100%"/>
    </linearGradient>
    <filter id="b" width="200%" height="200%" x="-50%" y="-50%" filterUnits="objectBoundingBox">
      <feGaussianBlur stdDeviation="3.76470588" in="SourceGraphic"/>
    </filter>
    <filter id="c" width="200%" height="200%" x="-50%" y="-50%" filterUnits="objectBoundingBox">
      <feGaussianBlur stdDeviation="3.76470588" in="SourceGraphic"/>
    </filter>
    <path id="d" d="M41.6973353 0c-1.1594151 10.4790306-10.0513728 18.6295929-20.8486676 18.6295929C10.0513728 18.6295929 1.1594151 10.4790306 0 0h41.6973353z"/>
  </defs>
  <g fill="none" fill-rule="evenodd">
    <g transform="translate(273)">
      <ellipse cx="29.9667037" cy="29.9404171" fill="url(#a)" rx="29.9667037" ry="29.9404171"/>
      <path fill="#000" d="M40.6544505 36.454463c-1.8950328.211015-3.9296383.2649028-6.1044687.1370838-.7342931-.0431558-1.2945398-.6728805-1.2513461-1.4065294.0431937-.733649.6734713-1.2934043 1.4077643-1.2502484 5.0249139.2953238 9.1783655-.4486657 12.5006575-1.8597372.9729672-.4132467 1.7946858-.8526186 2.4673574-1.2873325.3861112-.2495243.6271588-.4325798.724913-.5180397.5535671-.4839463 1.3949824-.4279012 1.8793536.1251803.4843712.5530816.4282769 1.3937587-.1252902 1.8777051-.1922939.1681095-.5355723.4288006-1.032295.7498076-.7987182.5161715-1.755357 1.0276851-2.8719446 1.5019315-.8346993.3545204-1.713641.670664-2.6369427.9439975.2144921.4315071.3367366.9288237.3367366 1.4582328 0 1.6535636-1.1925822 2.9940417-2.663707 2.9940417-1.4711247 0-2.663707-1.3404781-2.663707-2.9940417 0-.1606184.0112522-.3182827.0329189-.4720514zm-25.7442529-.8192936c-1.1402832-.3088174-2.2155277-.6817338-3.225942-1.1108853-1.1165876-.4742464-2.07322636-.98576-2.87194453-1.5019315-.4967227-.321007-.84000116-.5816981-1.032295-.7498076-.5535671-.4839464-.60966146-1.3246235-.12529025-1.8777051.48437122-.5530815 1.32578647-.6091266 1.87935357-.1251803.09775424.0854599.33880184.2685154.724913.5180397.6726717.4347139 1.4943903.8740858 2.4673575 1.2873325 3.3222919 1.4110715 7.4757435 2.155061 12.5006574 1.8597372.7342931-.0431559 1.3645706.5165994 1.4077643 1.2502484.0431938.7336489-.517053 1.3633736-1.251346 1.4065294-1.9189094.112778-3.7286537.0840975-5.4296811-.0691582.0158651.1321677.0240579.2670714.0240579.4041258 0 1.6535636-1.1925822 2.9940417-2.663707 2.9940417-1.4711247 0-2.6637069-1.3404781-2.6637069-2.9940417 0-.4624232.0932665-.9003613.2598091-1.291345zm15.0565058 13.6001831c5.1489366 0 8.657048 0 9.3229747-1.3306852.6659268-1.3306852-4.1740381-1.9960278-9.3229747-1.9960278s-9.988901.6653426-9.3229742 1.9960278c.6659267 1.3306852 4.1740376 1.3306852 9.3229742 1.3306852z"/>
    </g>
    <g transform="translate(204)">
      <ellipse cx="29.9667037" cy="29.9404171" fill="#FFDA6A" rx="29.9667037" ry="29.9404171"/>
      <g transform="translate(6.66 6.653)">
        <ellipse cx="5.99334073" cy="23.9523337" fill="#F55065" filter="url(#b)" rx="5.32741398" ry="5.32274081"/>
        <ellipse cx="37.2918979" cy="15.3028798" fill="#F55065" filter="url(#c)" rx="5.32741398" ry="5.32274081"/>
        <path fill="#000" d="M15.8181203 12.4367331C14.4543126 8.24304668 9.94608876 5.94800684 5.74872042 7.31061816 1.5513521 8.6732295-.7457027 13.1774988.61810492 17.3711852c.2273013.6989478.97867193 1.0814544 1.67823332.8543525.6995614-.2271019 1.08240386-.9778134.85510258-1.6767612-.9092051-2.7957909.62216477-5.7986371 3.42041033-6.70704467 2.79824556-.90840755 5.80372815.62161897 6.71293325 3.41740997.2273013.6989477.9786719 1.0814544 1.6782333.8543525.6995614-.2271019 1.0824039-.9778134.8551026-1.6767612zm21.3096559-6.653426C35.7639686 1.58962066 31.2557447-.70541918 27.0583764.65719214c-4.1973684 1.36261133-6.4944232 5.86688063-5.1306155 10.06056706.2273012.6989477.9786719 1.0814544 1.6782333.8543525.6995614-.2271019 1.0824038-.9778134.8551026-1.67676118-.9092051-2.79579096.6221647-5.79863716 3.4204103-6.7070447 2.7982455-.90840756 5.8037281.621619 6.7129332 3.41740996.2273013.69894774.978672 1.08145438 1.6782333.8543525.6995614-.2271019 1.0824039-.97781344.8551026-1.67676118zM9.463582 25.2127768c.7749425 1.5485254 5.2657481 3.40737 9.2976613 3.5623076 5.7808436.2221451 10.8892922-2.5154375 14.3702318-8.8388668.3544813-.6439461.1193654-1.4530793-.525146-1.8072497-.6445115-.3541703-1.4543551-.1192607-1.8088364.5246854-2.9835089 5.4198033-7.1382705 7.6463115-11.9338748 7.462027-1.7911996-.0688319-3.5741397-.4871108-5.1185697-1.1263849-.6194406-.2564002-1.1620356-.5345773-1.5649485-.7926889-.1654852-.1060122-.2958458-.2015457-.3806782-.2755569-.0163071-.014227-.0046024-.0008936.0466525.1015262-.3289535-.6573299-1.128962-.9237655-1.786869-.5951006-.657907.328665-.9245765 1.1279717-.595623 1.7853016z"/>
      </g>
    </g>
    <g transform="translate(136)">
      <ellipse cx="29.9667037" cy="29.9404171" fill="#FFDA6A" rx="29.9667037" ry="29.9404171"/>
      <g stroke="#000" stroke-width="2.4" stroke-linecap="round" stroke-linejoin="round">
        <path d="M11.80616693 16.1999971l8.2000122 4-7.7000122 4M48.7061909 16.1999971l-8.2000122 4 7.7000122 4"/>
      </g>
      <g transform="translate(9.323 30.606)">
        <mask id="e" fill="#fff">
          <use xlink:href="#d"/>
        </mask>
        <use fill="#000" xlink:href="#d"/>
        <ellipse cx="20.9766926" cy="18.2969215" fill="#F55065" mask="url(#e)" rx="25.6381798" ry="12.9741807"/>
      </g>
    </g>
    <g transform="translate(68)">
      <ellipse cx="29.9667037" cy="29.9404171" fill="#F55065" rx="29.9667037" ry="29.9404171"/>
      <path fill="#FFF" d="M30.299667 20.921113c-2.0307419-3.8497514-5.9498284-5.5548173-10.43149-4.7632285-6.0417203 1.0682341-8.9107133 7.5803535-6.1764017 13.8459574 3.0899545 7.0818442 10.1459937 12.0838064 16.6078917 15.9047976 6.4618981-3.8209912 13.5179372-8.8229534 16.6078918-15.9047976 2.7343116-6.2656039-.1346814-12.7777233-6.1764017-13.8459574-4.4816616-.7915888-8.4007481.9134771-10.4314901 4.7632285z"/>
    </g>
    <g>
      <ellipse cx="29.9667037" cy="29.9404171" fill="#558DFF" rx="29.9667037" ry="29.9404171"/>
      <path fill="#FFF" d="M13.318535 26.6055362c0-.7336028.5931311-1.328369 1.3294849-1.328369h5.9707192c.7342092 0 1.329418.5944989 1.329418 1.328369v15.2107675c0 .7336697-.5931312 1.3284358-1.329418 1.3284358h-5.9707192c-.7342762 0-1.3294849-.5944989-1.3294849-1.3284358V26.6055362zm21.0627896-14.514112c-.9619448-1.1027427-2.7287383-1.0327899-3.5429699.1823985-.1597097.2383207-.2605085.9619685-.2605085 1.2284842v1.8484386c0 2.5199058-4.9999278 6.6555418-6.1834422 9.3505635-.3385874.7710179-.3952867 1.6076459-.4459541 2.5587907l-.0087797.0023385v12.5671246c0 .3689395.3000506.6681265.6702046.6681265h16.5425944c1.110261 0 2.0525687-.9056454 2.0377572-2.0123301-.0086456-.6448088-.3256524-1.2153888-.8106795-1.5719011.8740139-.4332132 1.4746513-1.3325114 1.4746513-2.3716485 0-.8797889-.4305395-1.6592921-1.0930368-2.1406104 1.0243408-.3671355 1.7568745-1.3441368 1.7568745-2.4917108 0-.9965774-.5525167-1.8646073-1.368826-2.3161272.8102104-.4481792 1.3605154-1.3065881 1.3686919-2.2938118.0121978-1.4682079-1.2294904-2.6694324-2.7022651-2.6694324h-7.142438c.6457422-2.2114986.9194538-4.1315605 1.0901549-5.4388167.2591011-1.9853378-.6557953-4.2672569-1.382029-5.0998761z"/>
    </g>
  </g>
</svg>

<?xml version="1.0" encoding="UTF-8"?>
<svg width="333px" height="60px" viewBox="0 0 333 60" version="1.1" xmlns="http://www.w3.org/2000/svg" xmlns:xlink="http://www.w3.org/1999/xlink">
    <!-- Generator: Sketch 40.3 (33839) - http://www.bohemiancoding.com/sketch -->
    <title>emojis</title>
    <desc>Created with Sketch.</desc>
    <defs>
        <linearGradient x1="50%" y1="0%" x2="50%" y2="100%" id="linearGradient-1">
            <stop stop-color="#F65366" offset="0%"></stop>
            <stop stop-color="#F87168" offset="20.0672743%"></stop>
            <stop stop-color="#FB9568" offset="40.9695095%"></stop>
            <stop stop-color="#FEC96A" offset="70.8034939%"></stop>
            <stop stop-color="#FFDB6B" offset="100%"></stop>
        </linearGradient>
        <filter x="-50%" y="-50%" width="200%" height="200%" filterUnits="objectBoundingBox" id="filter-2">
            <feGaussianBlur stdDeviation="3.76470588" in="SourceGraphic"></feGaussianBlur>
        </filter>
        <filter x="-50%" y="-50%" width="200%" height="200%" filterUnits="objectBoundingBox" id="filter-3">
            <feGaussianBlur stdDeviation="3.76470588" in="SourceGraphic"></feGaussianBlur>
        </filter>
        <path d="M41.6973353,-1.88737914e-15 C40.5379202,10.4790306 31.6459625,18.6295929 20.8486677,18.6295929 C10.0513728,18.6295929 1.1594151,10.4790306 4.60742555e-15,1.70308212e-13 L41.6973353,0 Z" id="path-4"></path>
    </defs>
    <g id="FB-emojii-Freebies" stroke="none" stroke-width="1" fill="none" fill-rule="evenodd">
        <g transform="translate(-178.000000, -372.000000)" id="emojis">
            <g transform="translate(178.000000, 372.000000)">
                <g id="angry" transform="translate(273.000000, 0.000000)">
                    <g id="emoji" transform="translate(0.000000, 0.000000)">
                        <ellipse id="body" fill="url(#linearGradient-1)" cx="29.9667037" cy="29.9404171" rx="29.9667037" ry="29.9404171"></ellipse>
                        <path d="M40.6544505,36.454463 C38.7594177,36.665478 36.7248122,36.7193658 34.5499818,36.5915468 C33.8156887,36.548391 33.255442,35.9186663 33.2986357,35.1850174 C33.3418294,34.4513684 33.972107,33.8916131 34.7064,33.934769 C39.7313139,34.2300928 43.8847655,33.4861033 47.2070575,32.0750318 C48.1800247,31.6617851 49.0017433,31.2224132 49.6744149,30.7876993 C50.0605261,30.538175 50.3015737,30.3551195 50.3993279,30.2696596 C50.952895,29.7857133 51.7943103,29.8417584 52.2786815,30.3948399 C52.7630527,30.9479215 52.7069584,31.7885986 52.1533913,32.272545 C51.9610974,32.4406545 51.617819,32.7013456 51.1210963,33.0223526 C50.3223781,33.5385241 49.3657393,34.0500377 48.2491517,34.5242841 C47.4144524,34.8788045 46.5355107,35.1949481 45.612209,35.4682816 C45.8267011,35.8997887 45.9489456,36.3971053 45.9489456,36.9265144 C45.9489456,38.580078 44.7563634,39.9205561 43.2852386,39.9205561 C41.8141139,39.9205561 40.6215316,38.580078 40.6215316,36.9265144 C40.6215316,36.765896 40.6327838,36.6082317 40.6544505,36.454463 Z M14.9101976,35.6351694 C13.7699144,35.326352 12.6946699,34.9534356 11.6842556,34.5242841 C10.567668,34.0500377 9.61102924,33.5385241 8.81231107,33.0223526 C8.31558836,32.7013456 7.97230991,32.4406545 7.78001606,32.272545 C7.22644896,31.7885986 7.17035461,30.9479215 7.65472582,30.3948399 C8.13909704,29.8417584 8.98051229,29.7857133 9.53407939,30.2696596 C9.63183364,30.3551195 9.87288124,30.538175 10.2589924,30.7876993 C10.9316641,31.2224132 11.7533827,31.6617851 12.7263499,32.0750318 C16.0486418,33.4861033 20.2020934,34.2300928 25.2270073,33.934769 C25.9613004,33.8916131 26.5915779,34.4513684 26.6347716,35.1850174 C26.6779654,35.9186663 26.1177186,36.548391 25.3834256,36.5915468 C23.4645162,36.7043248 21.6547719,36.6756443 19.9537445,36.5223886 C19.9696096,36.6545563 19.9778024,36.78946 19.9778024,36.9265144 C19.9778024,38.580078 18.7852202,39.9205561 17.3140954,39.9205561 C15.8429707,39.9205561 14.6503885,38.580078 14.6503885,36.9265144 C14.6503885,36.4640912 14.743655,36.0261531 14.9101976,35.6351694 Z M29.9667034,49.2353525 C35.11564,49.2353525 38.6237514,49.2353525 39.2896781,47.9046673 C39.9556049,46.5739821 35.11564,45.9086395 29.9667034,45.9086395 C24.8177668,45.9086395 19.9778024,46.5739821 20.6437292,47.9046673 C21.3096559,49.2353525 24.8177668,49.2353525 29.9667034,49.2353525 Z" id="expression" fill="#000000"></path>
                    </g>
                </g>
                <g id="ya" transform="translate(204.000000, 0.000000)">
                    <g id="emoji" transform="translate(0.000000, 0.000000)">
                        <ellipse id="body" fill="#FFDA6A" cx="29.9667037" cy="29.9404171" rx="29.9667037" ry="29.9404171"></ellipse>
                        <g id="expression" transform="translate(6.659267, 6.653426)">
                            <ellipse id="red" fill="#F55065" filter="url(#filter-2)" cx="5.99334073" cy="23.9523337" rx="5.32741398" ry="5.32274081"></ellipse>
                            <ellipse id="red" fill="#F55065" filter="url(#filter-3)" cx="37.2918979" cy="15.3028798" rx="5.32741398" ry="5.32274081"></ellipse>
                            <path d="M15.8181203,12.4367331 C14.4543126,8.24304668 9.94608876,5.94800684 5.74872042,7.31061816 C1.55135209,8.67322949 -0.745702713,13.1774988 0.618104932,17.3711852 C0.845406207,18.070133 1.59677685,18.4526396 2.29633824,18.2255377 C2.99589963,17.9984358 3.3787421,17.2477243 3.15144082,16.5487765 C2.24223573,13.7529856 3.77360559,10.7501394 6.57185115,9.84173183 C9.37009671,8.93332428 12.3755793,10.4633508 13.2847844,13.2591418 C13.5120857,13.9580895 14.2634563,14.3405962 14.9630177,14.1134943 C15.6625791,13.8863924 16.0454216,13.1356809 15.8181203,12.4367331 Z M37.1277762,5.7833071 C35.7639686,1.58962066 31.2557447,-0.705419178 27.0583764,0.657192145 C22.861008,2.01980347 20.5639532,6.52407277 21.9277609,10.7177592 C22.1550621,11.4167069 22.9064328,11.7992136 23.6059942,11.5721117 C24.3055556,11.3450098 24.688398,10.5942983 24.4610968,9.89535052 C23.5518917,7.09955956 25.0832615,4.09671336 27.8815071,3.18830581 C30.6797526,2.27989826 33.6852352,3.80992482 34.5944403,6.60571578 C34.8217416,7.30466352 35.5731123,7.68717016 36.2726736,7.46006827 C36.972235,7.23296639 37.3550775,6.48225484 37.1277762,5.7833071 Z M9.46358199,25.2127768 C10.2385245,26.7613022 14.7293301,28.6201468 18.7612433,28.7750844 C24.5420869,28.9972295 29.6505355,26.2596469 33.1314751,19.9362176 C33.4859564,19.2922715 33.2508405,18.4831383 32.6063291,18.1289679 C31.9618176,17.7747976 31.151974,18.0097072 30.7974927,18.6536533 C27.8139838,24.0734566 23.6592222,26.2999648 18.8636179,26.1156803 C17.0724183,26.0468484 15.2894782,25.6285695 13.7450482,24.9892954 C13.1256076,24.7328952 12.5830126,24.4547181 12.1800997,24.1966065 C12.0146145,24.0905943 11.8842539,23.9950608 11.7994215,23.9210496 C11.7831144,23.9068226 11.7948191,23.920156 11.846074,24.0225758 C11.5171205,23.3652459 10.717112,23.0988103 10.059205,23.4274752 C9.40129799,23.7561402 9.13462849,24.5554469 9.46358199,25.2127768 Z" fill="#000000"></path>
                        </g>
                    </g>
                </g>
                <g id="haha" transform="translate(136.000000, 0.000000)">
                    <g id="emoji">
                        <ellipse id="body" fill="#FFDA6A" cx="29.9667037" cy="29.9404171" rx="29.9667037" ry="29.9404171"></ellipse>
                        <g id="expression" transform="translate(9.322974, 15.302880)">
                            <g id="eyes" transform="translate(2.000000, 0.000000)" stroke="#000000" stroke-width="2.4" stroke-linecap="round" stroke-linejoin="round">
                                <polyline id="eyes-left" points="0.483192928 0.897117107 8.68320514 4.89711711 0.983192928 8.89711711"></polyline>
                                <polyline id="eyes-right" transform="translate(33.283211, 4.897117) scale(-1, 1) translate(-33.283211, -4.897117) " points="29.1832051 0.897117107 37.3832173 4.89711711 29.6832051 8.89711711"></polyline>
                            </g>
                            <g id="mouth" transform="translate(0.000000, 15.302880)">
                                <mask id="mask-5" fill="white">
                                    <use xlink:href="#path-4"></use>
                                </mask>
                                <use id="Mask" fill="#000000" xlink:href="#path-4"></use>
                                <ellipse id="Oval-12" fill="#F55065" mask="url(#mask-5)" cx="20.9766926" cy="18.2969215" rx="25.6381798" ry="12.9741807"></ellipse>
                            </g>
                        </g>
                    </g>
                </g>
                <g id="love" transform="translate(68.000000, 0.000000)">
                    <g transform="translate(0.000000, 0.000000)">
                        <ellipse id="body" fill="#F55065" cx="29.9667037" cy="29.9404171" rx="29.9667037" ry="29.9404171"></ellipse>
                        <path d="M30.299667,20.921113 C28.2689251,17.0713616 24.3498386,15.3662957 19.868177,16.1578845 C13.8264567,17.2261186 10.9574637,23.738238 13.6917753,30.0038419 C16.7817298,37.0856861 23.837769,42.0876483 30.299667,45.9086395 C36.7615651,42.0876483 43.8176042,37.0856861 46.9075588,30.0038419 C49.6418704,23.738238 46.7728774,17.2261186 40.7311571,16.1578845 C36.2494955,15.3662957 32.330409,17.0713616 30.299667,20.921113 Z" id="heart" fill="#FFFFFF"></path>
                    </g>
                </g>
                <g id="like">
                    <g id="thumbs" transform="translate(0.000000, 0.000000)">
                        <ellipse id="body" fill="#558DFF" cx="29.9667037" cy="29.9404171" rx="29.9667037" ry="29.9404171"></ellipse>
                        <path d="M13.318535,26.6055362 C13.318535,25.8719334 13.9116661,25.2771672 14.6480199,25.2771672 L20.6187391,25.2771672 C21.3529483,25.2771672 21.9481571,25.8716661 21.9481571,26.6055362 L21.9481571,41.8163037 C21.9481571,42.5499734 21.3550259,43.1447395 20.6187391,43.1447395 L14.6480199,43.1447395 C13.9137437,43.1447395 13.318535,42.5502406 13.318535,41.8163037 L13.318535,26.6055362 L13.318535,26.6055362 Z M34.3813246,12.0914242 C33.4193798,10.9886815 31.6525863,11.0586343 30.8383547,12.2738227 C30.678645,12.5121434 30.5778462,13.2357912 30.5778462,13.5023069 L30.5778462,15.3507455 C30.5778462,17.8706513 25.5779184,22.0062873 24.394404,24.701309 C24.0558166,25.4723269 23.9991173,26.3089549 23.9484499,27.2600997 L23.9396702,27.2624382 L23.9396702,39.8295628 C23.9396702,40.1985023 24.2397208,40.4976893 24.6098748,40.4976893 L41.1524692,40.4976893 C42.2627302,40.4976893 43.2050379,39.5920439 43.1902264,38.4853592 C43.1815808,37.8405504 42.864574,37.2699704 42.3795469,36.9134581 C43.2535608,36.4802449 43.8541982,35.5809467 43.8541982,34.5418096 C43.8541982,33.6620207 43.4236587,32.8825175 42.7611614,32.4011992 C43.7855022,32.0340637 44.5180359,31.0570624 44.5180359,29.9094884 C44.5180359,28.912911 43.9655192,28.0448811 43.1492099,27.5933612 C43.9594203,27.145182 44.5097253,26.2867731 44.5179018,25.2995494 C44.5300996,23.8313415 43.2884114,22.630117 41.8156367,22.630117 L34.6731987,22.630117 C35.3189409,20.4186184 35.5926525,18.4985565 35.7633536,17.1913003 C36.0224547,15.2059625 35.1075583,12.9240434 34.3813246,12.0914242 L34.3813246,12.0914242 Z" fill="#FFFFFF"></path>
                    </g>
                </g>
            </g>
        </g>
    </g>
</svg>
